src/assets/images/ic-arrow.svg

<svg width="24" height="24" viewBox="0 0 24 24" fill="none" xmlns="http://www.w3.org/2000/svg">
<g clip-path="url(#clip0_132_201)">
<path d="M5 10.9993H16.86L13.23 6.6393C13.0603 6.43508 12.9786 6.1718 13.003 5.90738C13.0274 5.64295 13.1558 5.39904 13.36 5.2293C13.5642 5.05956 13.8275 4.9779 14.0919 5.00228C14.3563 5.02666 14.6003 5.15508 14.77 5.3593L19.77 11.3593C19.8036 11.407 19.8337 11.4572 19.86 11.5093C19.86 11.5593 19.86 11.5893 19.93 11.6393C19.9753 11.754 19.9991 11.876 20 11.9993C19.9991 12.1226 19.9753 12.2446 19.93 12.3593C19.93 12.4093 19.93 12.4393 19.86 12.4893C19.8337 12.5414 19.8036 12.5916 19.77 12.6393L14.77 18.6393C14.676 18.7522 14.5582 18.843 14.4252 18.9052C14.2921 18.9674 14.1469 18.9995 14 18.9993C13.7663 18.9998 13.5399 18.9184 13.36 18.7693C13.2587 18.6854 13.175 18.5822 13.1137 18.4659C13.0523 18.3496 13.0145 18.2222 13.0025 18.0913C12.9904 17.9603 13.0043 17.8282 13.0433 17.7026C13.0824 17.577 13.1458 17.4603 13.23 17.3593L16.86 12.9993H5C4.73478 12.9993 4.48043 12.8939 4.29289 12.7064C4.10536 12.5189 4 12.2645 4 11.9993C4 11.7341 4.10536 11.4797 4.29289 11.2922C4.48043 11.1047 4.73478 10.9993 5 10.9993Z" fill="white"/>
</g>
<defs>
<clipPath id="clip0_132_201">
<rect width="24" height="24" fill="white" transform="matrix(-1 0 0 1 24 0)"/>
</clipPath>
</defs>
</svg>

<svg width="24" height="24" fill="none" xmlns="http://www.w3.org/2000/svg"><g clip-path="url(#a)"><path d="M5 11h11.86l-3.63-4.36a1.001 1.001 0 0 1 1.54-1.28l5 6c.034.047.064.097.09.15 0 .05 0 .08.07.13A1 1 0 0 1 20 12a1 1 0 0 1-.07.36c0 .05 0 .08-.07.13a1.198 1.198 0 0 1-.09.15l-5 6a1 1 0 0 1-1.41.13.999.999 0 0 1-.13-1.41L16.86 13H5a1 1 0 0 1 0-2Z" fill="#fff"/></g><defs><clipPath id="a"><path fill="#fff" transform="matrix(-1 0 0 1 24 0)" d="M0 0h24v24H0z"/></clipPath></defs></svg>
